priv/static/svgs/country_flags/LS.svg

<?xml version="1.0" encoding="UTF-8"?>
<svg id="item" width="21px" height="15px" viewBox="0 0 21 15" version="1.1" xmlns="http://www.w3.org/2000/svg" xmlns:xlink="http://www.w3.org/1999/xlink">
    <defs>
        <linearGradient x1="50%" y1="0%" x2="50%" y2="100%" id="linearGradient-1">
            <stop stop-color="#FFFFFF" offset="0%"></stop>
            <stop stop-color="#F0F0F0" offset="100%"></stop>
        </linearGradient>
        <linearGradient x1="50%" y1="0%" x2="50%" y2="100%" id="linearGradient-2">
            <stop stop-color="#0C33B8" offset="0%"></stop>
            <stop stop-color="#05279D" offset="100%"></stop>
        </linearGradient>
        <linearGradient x1="50%" y1="0%" x2="50%" y2="100%" id="linearGradient-3">
            <stop stop-color="#1DB158" offset="0%"></stop>
            <stop stop-color="#149447" offset="100%"></stop>
        </linearGradient>
        <linearGradient x1="50%" y1="0%" x2="50%" y2="100%" id="linearGradient-4">
            <stop stop-color="#262626" offset="0%"></stop>
            <stop stop-color="#0D0D0D" offset="100%"></stop>
        </linearGradient>
    </defs>
    <g id="Symbols" stroke="none" stroke-width="1" fill="none" fill-rule="evenodd">
        <g id="LS">
            <rect id="FlagBackground" fill="url(#linearGradient-1)" x="0" y="0" width="21" height="15"></rect>
            <rect id="Rectangle-2" fill="url(#linearGradient-2)" x="0" y="0" width="21" height="5"></rect>
            <rect id="Rectangle-2" fill="url(#linearGradient-3)" x="0" y="10" width="21" height="5"></rect>
            <rect id="Rectangle-2" fill="url(#linearGradient-1)" x="0" y="5" width="21" height="5"></rect>
            <path d="M10,7.49999999 L10.3417969,6.47460937 C10.42917,6.21248985 10.5695229,6.20856856 10.6582031,6.47460936 L11,7.49999994 L11.8609543,8.79143142 C11.9377471,8.90662067 11.9176025,9.06952286 11.8062744,9.14731216 C11.8062744,9.14731216 11.5,9.5 10.5,9.5 C9.5,9.5 9.19372559,9.14731216 9.19372559,9.14731216 C9.0867339,9.0659539 9.06561279,8.90158081 9.13904572,8.79143143 L10,7.49999999 Z" id="Rectangle-328" fill="url(#linearGradient-4)"></path>
            <path d="M10.5,7.5 C9.94771525,7.5 9.5,7.05228475 9.5,6.5 C9.5,5.94771525 9.94771525,5.5 10.5,5.5 C11.0522847,5.5 11.5,5.94771525 11.5,6.5 C11.5,7.05228475 11.0522847,7.5 10.5,7.5 Z M10.5,7.5 C10.7761424,7.5 11,6.77614237 11,6.5 C11,6.22385763 10.7761424,6 10.5,6 C10.2238576,6 10,6.22385763 10,6.5 C10,6.77614237 10.2238576,7.5 10.5,7.5 Z" id="Combined-Shape" fill="#242424" fill-rule="nonzero"></path>
        </g>
    </g>
</svg>

<svg width="21" height="15" viewBox="0 0 21 15" xmlns="http://www.w3.org/2000/svg"><defs><linearGradient x1="50%" y1="0%" x2="50%" y2="100%" id="a"><stop stop-color="#FFF" offset="0%"/><stop stop-color="#F0F0F0" offset="100%"/></linearGradient><linearGradient x1="50%" y1="0%" x2="50%" y2="100%" id="b"><stop stop-color="#0C33B8" offset="0%"/><stop stop-color="#05279D" offset="100%"/></linearGradient><linearGradient x1="50%" y1="0%" x2="50%" y2="100%" id="c"><stop stop-color="#1DB158" offset="0%"/><stop stop-color="#149447" offset="100%"/></linearGradient><linearGradient x1="50%" y1="0%" x2="50%" y2="100%" id="d"><stop stop-color="#262626" offset="0%"/><stop stop-color="#0D0D0D" offset="100%"/></linearGradient></defs><g fill="none" fill-rule="evenodd"><path fill="url(#a)" d="M0 0h21v15H0z"/><path fill="url(#b)" d="M0 0h21v5H0z"/><path fill="url(#c)" d="M0 10h21v5H0z"/><path fill="url(#a)" d="M0 5h21v5H0z"/><path d="m10 7.5.342-1.025c.087-.263.228-.266.316 0L11 7.5l.861 1.291c.077.116.057.279-.055.356 0 0-.306.353-1.306.353s-1.306-.353-1.306-.353a.27.27 0 0 1-.055-.356L10 7.5Z" fill="url(#d)"/><path d="M10.5 7.5a1 1 0 1 1 0-2 1 1 0 0 1 0 2Zm0 0c.276 0 .5-.724.5-1a.5.5 0 1 0-1 0c0 .276.224 1 .5 1Z" fill="#242424" fill-rule="nonzero"/></g></svg>
